P2
# 示例地图文件 - 20x20像素的简单地图
20 20
255
0 0 0 0 0 0 0 0 0 0 0 0 0 0 0 0 0 0 0 0
0 255 255 255 255 255 255 255 255 255 255 255 255 255 255 255 255 255 255 0
0 255 0 0 0 0 0 0 0 0 0 0 0 0 0 0 0 0 255 0
0 255 0 255 255 255 255 255 255 255 255 255 255 255 255 255 255 0 255 0
0 255 0 255 0 0 0 0 0 0 0 0 0 0 0 0 255 0 255 0
0 255 0 255 0 255 255 255 255 255 255 255 255 255 255 0 255 0 255 0
0 255 0 255 0 255 0 0 0 0 0 0 0 0 255 0 255 0 255 0
0 255 0 255 0 255 0 255 255 255 255 255 255 0 255 0 255 0 255 0
0 255 0 255 0 255 0 255 0 0 0 0 255 0 255 0 255 0 255 0
0 255 0 255 0 255 0 255 0 255 255 0 255 0 255 0 255 0 255 0
0 255 0 255 0 255 0 255 0 255 255 0 255 0 255 0 255 0 255 0
0 255 0 255 0 255 0 255 0 0 0 0 255 0 255 0 255 0 255 0
0 255 0 255 0 255 0 255 255 255 255 255 255 0 255 0 255 0 255 0
0 255 0 255 0 255 0 0 0 0 0 0 0 0 255 0 255 0 255 0
0 255 0 255 0 255 255 255 255 255 255 255 255 255 255 0 255 0 255 0
0 255 0 255 0 0 0 0 0 0 0 0 0 0 0 0 255 0 255 0
0 255 0 255 255 255 255 255 255 255 255 255 255 255 255 255 255 0 255 0
0 255 0 0 0 0 0 0 0 0 0 0 0 0 0 0 0 0 255 0
0 255 255 255 255 255 255 255 255 255 255 255 255 255 255 255 255 255 255 0
0 0 0 0 0 0 0 0 0 0 0 0 0 0 0 0 0 0 0 0